X:1087
T:Wallop the Spot
R:double jig
N:"collected by McFadden"
B:O'Neill's 1087
Z:Transcribed by henrik.norbeck@mailbox.swipnet.se
M:6/8
L:1/8
K:D
d2B cAF|FEF dAF|d2B cAF|B2d AFE|
d2B cAF|FEF dAF|dfd cec|B2d AFE:|
c2d ecA|eaf ecA|c2d ecA|B2F AFE|
c2d ecA|eaf efg|agf ecA|TB2F AFE:|
DFA dfd|dfd dAF|DFA dAF|B2d AFE|
DFA dfd|dfd d2g|f/g/ag d2A|B2d AFE:|
TF2E D2D|DED D2E|GFEF DFA|B2d AFE|
TF2E D2D|DED D2c|dcB dcBA|B2d AFE:|
